!!!COM: Hummel, Johann Nepomuk
!!!CDT: 1778/11/14-1837/10/17
!!!OTL: Prelude in D minor, op. 67, no. 24
!!!OPS: 67
!!!ONM: 24
!!!OMD: Allegro spiritoso.
!!!ODT: 1815
!!!AIN: piano
**kern	**kern	**dynam
*staff2	*staff1	*staff1/2
*Ipiano	*Ipiano	*
*clefF4	*clefG2	*
*k[b-]	*k[b-]	*
*d:	*d:	*
*met(c)	*met(c)	*
*M4/4	*M4/4	*
*MM128	*MM128	*
=1-	=1-	=1-
*ped	*	*
!	!	!LO:DY:rj:b=2
4DD	4rA<	f
*Xped	*	*
4rEE	(16D<LL	f
.	16C#<	.
.	16E<	.
.	16D<JJ	.
2rEE	16F<LL	.
.	16E<	.
.	16G<	.
.	16F<JJ	.
.	16A<LL	.
.	16G#<	.
.	16B-<	.
.	16A<JJ	.
=2	=2	=2
1r	16dLL	.
.	16c#	.
.	16e	.
.	16dJJ	.
.	16fLL	.
.	16e	.
.	16g	.
.	16fJJ	.
.	16aLL	.
.	16g#	.
.	16b-	.
.	16aJJ	.
.	16ddLL	.
.	16cc#	.
.	16ee	.
.	16ddJJ	.
=3	=3	=3
1r	16ffLL	.
.	16ee	.
.	16gg	.
.	16ffJJ	.
.	16aaLL	.
.	16gg#	.
.	16bb-	.
.	16aaJJ	.
.	16dddLL	.
.	16ccc#	.
.	16eee	.
.	16dddJJ	.
.	16fffLL	.
.	16eee	.
.	16ggg	.
.	16fffJJ)	.
*clefG2	*	*
!!LO:LB:g=original
=4	=4	=4
8ff''L	(16aaa^LL	.
.	16aa	.
8ee''	16ggg	.
.	16ggJJ	.
8dd''	16fffLL	.
.	16ff	.
8cc''J	16eee	.
.	16eeJJ	.
8b-''L	16dddLL	.
.	16dd	.
8a''	16cccn	.
.	16ccnJJ	.
8g''	16bb-LL	.
.	16b-	.
8f''J	16aa	.
.	16aJJ	.
=5	=5	=5
8e''L	16ggLL	.
.	16g	.
8d''	16ff	.
.	16fJJ	.
8c#''	16eeLL<	.
.	16e	.
8B-''J	16dd	.
.	16dJJ	.
*clefF4	*	*
8A''L	16cc#LL	.
.	16c#	.
8G''	16b-X	.
.	16B-XJJ	.
8F''	16aLL	.
.	16A	.
8E''J	16g	.
.	16GJJ	.
=6	=6	=6
!	!LO:TX:i:a:t=sostenuto	!
4D	4f)	.
4CCn 4Cn	4A 4d (>4f#	sf
4BBBn 4BBn	4G 4d 4g	sf
4BBB- 4BB-	4G# 4d 4fn 4g#)	sf
=7	=7	=7
*ped	*	*
2AAA:: 2AA:: 4FF:: 4DD::	2A:: 2d:: 2f:: 2a::	f
*	*clefF4	*
*ped	*	*
2AAA: 2AA:: 4EE:: 4CC#::	[2E:: [2G:: [2A:: [2c#::	p
=8	=8	=8
*ped	*	*
1DD: 1AA: 1D:	2E] 2G] 2A] (2c#]	.
*ped	*	*
.	2F 2A 2d)	.
*Xped	*	*
==	==	==
*-	*-	*-
!!!ENC: Craig Stuart Sapp
!!!END: 2008/06/12
!!!EEV: 2025/04/06
!!!YEC: Copyright 2008 by Craig Stuart Sapp
!!!YEN: United States of America
!!!RDF**kern: > = above
!!!RDF**kern: < = below
